X: 1680
T: Luedeck's Polka
B: australian traditional tunes wiki
M:2/4
L:1/8
R: Polka
Q: 1/4=100
K:G
V:1 
|:G/G/|"G"GD B,D|G/F/G/A/ B2|"D7"Ac/B/ Ac/B/|A/c/B/A/ F/D/E/F/|
"G"GD B,D|G/F/G/A/ B2|"D7"Ac/B/ A/G/F/A/|"G"GB G:|
|:B/c/|"G"d>c Bc|d/c/B/c/ d2|"D7"c>B AB|c/B/A/B/ cB/A/|
"G"GD B,D|G/F/G/A/ B2|"D7"Ac/B/ A/G/F/A/|"G"GB G:||
% abcbook-tune_id 6342d53afc4529c1ee349d5f


% abcbook-boost 0
% abcbook-tablature 
% abcbook-transpose 
% abcbook-lastupdated 1665324377627
% abcbook-soundfonts 
% abcbook-repeats 1
% NFF Book 2018

